src/main/resources/icons/OsmorcIdeaIcons/icons/bnd.svg

<svg xmlns="http://www.w3.org/2000/svg" width="16" height="16" viewBox="0 0 16 16">
  <path fill="#941100" d="M1,1 L15,1 L15,15 L1,15 L1,1 Z M3.01886792,8.92727273 L3.01886792,5 L2,5 L2.00060209,8.92727273 C2.02600931,10.076925 2.85231133,11 3.86792453,11 C4.89955076,11 5.73584906,10.0475876 5.73584906,8.87272727 C5.73584906,7.69786699 4.89955076,6.74545455 3.86792453,6.74545455 C3.69131672,6.74545455 3.52043344,6.77336713 3.35849057,6.82552992 L3.35849057,8.02968125 C3.50039518,7.90829346 3.6767839,7.83636364 3.86792453,7.83636364 C4.33684554,7.83636364 4.71698113,8.26927838 4.71698113,8.80330579 C4.71698113,9.33733319 4.33684554,9.77024793 3.86792453,9.77024793 C3.43588445,9.77024793 3.07921296,9.40275326 3.02578064,8.92727273 L3.01886792,8.92727273 Z M12.9811321,8.92727273 L12.9742194,8.92727273 C12.920787,9.40275326 12.5641155,9.77024793 12.1320755,9.77024793 C11.6631545,9.77024793 11.2830189,9.33733319 11.2830189,8.80330579 C11.2830189,8.26927838 11.6631545,7.83636364 12.1320755,7.83636364 C12.3232161,7.83636364 12.4996048,7.90829346 12.6415094,8.02968125 L12.6415094,6.82552992 C12.4795666,6.77336713 12.3086833,6.74545455 12.1320755,6.74545455 C11.1004492,6.74545455 10.2641509,7.69786699 10.2641509,8.87272727 C10.2641509,10.0475876 11.1004492,11 12.1320755,11 C13.1476887,11 13.9739907,10.076925 13.9993979,8.92727273 L14,5 L12.9811321,5 L12.9811321,8.92727273 Z M8.56603774,10.8909091 L9.58490566,10.8909091 L9.58490566,8.00385457 C9.58490566,7.30885943 9.02150078,6.74545455 8.32650564,6.74545455 L7.67349436,6.74545455 C6.97849922,6.74545455 6.41509434,7.30885943 6.41509434,8.00385457 L6.41509434,10.8909091 L7.43396226,10.8909091 L7.43396226,8.40240137 C7.43396226,8.08978736 7.68738599,7.83636364 8,7.83636364 C8.31261401,7.83636364 8.56603774,8.08978736 8.56603774,8.40240137 L8.56603774,10.8909091 Z"/>
</svg>

<svg xmlns="http://www.w3.org/2000/svg" width="16" height="16" viewBox="0 0 16 16"><rect id="frame" width="16" height="16" fill="none"/><path fill="#941100" d="M1 1h14v14H1V1zm2.019 7.927V5H2v3.927C2.027 10.077 2.853 11 3.869 11c1.032 0 1.868-.952 1.868-2.127 0-1.175-.836-2.128-1.868-2.128-.177 0-.348.028-.51.08V8.03a.78.78 0 0 1 .51-.194c.469 0 .849.433.849.967s-.38.967-.85.967c-.431 0-.788-.367-.841-.843h-.007zm9.962 0h-.007c-.053.476-.41.843-.842.843-.469 0-.849-.433-.849-.967s.38-.967.85-.967a.78.78 0 0 1 .509.194V6.826a1.657 1.657 0 0 0-.51-.08c-1.032 0-1.868.952-1.868 2.127 0 1.175.836 2.127 1.868 2.127 1.016 0 1.842-.923 1.867-2.073L14 5h-1.019v3.927zm-4.415 1.964h1.019V8.004c0-.695-.563-1.259-1.258-1.259h-.654c-.695 0-1.258.564-1.258 1.259v2.887h1.019V8.402a.566.566 0 0 1 1.132 0v2.489z"/></svg>
